svg/fluentui-system-icons/ic_fluent_align_center_horizontal_20_regular.svg

<svg width="20" height="20" viewBox="0 0 20 20" fill="none" xmlns="http://www.w3.org/2000/svg">
<path d="M18 9.5C18 9.77614 17.7761 10 17.5 10H16V12C16 13.1046 15.1046 14 14 14H13C11.8954 14 11 13.1046 11 12V10H9V14C9 15.1046 8.10457 16 7 16H6C4.89543 16 4 15.1046 4 14V10H2.5C2.22386 10 2 9.77614 2 9.5C2 9.22386 2.22386 9 2.5 9H4V5C4 3.89543 4.89543 3 6 3H7C8.10457 3 9 3.89543 9 5V9H11V7C11 5.89543 11.8954 5 13 5H14C15.1046 5 16 5.89543 16 7V9H17.5C17.7761 9 18 9.22386 18 9.5ZM5 14C5 14.5523 5.44772 15 6 15H7C7.55228 15 8 14.5523 8 14V5C8 4.44772 7.55228 4 7 4H6C5.44772 4 5 4.44772 5 5V14ZM12 12C12 12.5523 12.4477 13 13 13H14C14.5523 13 15 12.5523 15 12V7C15 6.44772 14.5523 6 14 6H13C12.4477 6 12 6.44772 12 7V12Z" fill="#212121"/>
</svg>

<svg xmlns="http://www.w3.org/2000/svg" width="20" height="20"><path d="M18 9.5a.5.5 0 0 1-.5.5H16v2a2 2 0 0 1-2 2h-1a2 2 0 0 1-2-2v-2H9v4a2 2 0 0 1-2 2H6a2 2 0 0 1-2-2v-4H2.5a.5.5 0 0 1 0-1H4V5a2 2 0 0 1 2-2h1a2 2 0 0 1 2 2v4h2V7a2 2 0 0 1 2-2h1a2 2 0 0 1 2 2v2h1.5a.5.5 0 0 1 .5.5ZM5 14a1 1 0 0 0 1 1h1a1 1 0 0 0 1-1V5a1 1 0 0 0-1-1H6a1 1 0 0 0-1 1v9Zm7-2a1 1 0 0 0 1 1h1a1 1 0 0 0 1-1V7a1 1 0 0 0-1-1h-1a1 1 0 0 0-1 1v5Z"/></svg>
